src/assets/filled/Polkadot.svg

<svg width="24" height="24" viewBox="0 0 24 24"  xmlns="http://www.w3.org/2000/svg">
<path d="M8.00001 21.75C7.98001 21.75 7.96 21.75 7.95 21.75C7.56 21.72 7.25001 21.4 7.25001 21C7.25001 20.43 7.32001 19.9 7.47001 19.41L9.26001 6.89C9.32001 6.48 9.70001 6.2 10.11 6.25C10.52 6.31 10.81 6.69 10.75 7.1L9.33001 17.01C10.57 16.26 11.92 16.25 12 16.25C15.72 16.25 18.75 13.22 18.75 9.5C18.75 5.78 15.72 2.75 12 2.75C8.28001 2.75 5.25001 5.78 5.25001 9.5C5.25001 10.6 5.52001 11.69 6.03001 12.65C6.22001 13.02 6.08001 13.47 5.72001 13.66C5.35001 13.85 4.90001 13.71 4.71001 13.35C4.09001 12.17 3.76001 10.84 3.76001 9.5C3.76001 4.95 7.46001 1.25 12.01 1.25C16.56 1.25 20.26 4.95 20.26 9.5C20.26 14.05 16.56 17.75 12.01 17.75C11.92 17.75 9.80001 17.79 9.04001 19.5C9.01001 19.58 8.97 19.66 8.95 19.74L8.76001 21.1C8.69001 21.48 8.37001 21.75 8.00001 21.75Z" />
<path d="M14 22.0008C13.74 22.0008 13.48 21.8908 13.29 21.7108C13.11 21.5208 13 21.2608 13 21.0008C13 20.8708 13.03 20.7408 13.08 20.6208C13.13 20.4908 13.2 20.3908 13.29 20.2908C13.57 20.0108 14.01 19.9208 14.38 20.0808C14.51 20.1308 14.61 20.2008 14.71 20.2908C14.8 20.3908 14.87 20.4908 14.92 20.6208C14.97 20.7408 15 20.8708 15 21.0008C15 21.2608 14.89 21.5208 14.71 21.7108C14.61 21.8008 14.51 21.8708 14.38 21.9208C14.26 21.9708 14.13 22.0008 14 22.0008Z" />
</svg>

<?xml version="1.0" encoding="UTF-8"?>
<svg width="24" height="24" viewBox="0 0 24 24" xmlns="http://www.w3.org/2000/svg">
 <path d="m8 21.75h-0.05001c-0.39-0.03-0.69999-0.35-0.69999-0.75 0-0.57 0.07-1.1 0.22-1.59l1.79-12.52c0.06-0.41 0.44-0.69 0.84999-0.64 0.41 0.06 0.7 0.44 0.64 0.85l-1.42 9.91c1.24-0.75 2.59-0.76 2.67-0.76 3.72 0 6.75-3.03 6.75-6.75s-3.03-6.75-6.75-6.75c-3.72 0-6.75 3.03-6.75 6.75 0 1.1 0.27 2.19 0.78 3.15 0.19 0.37 0.05 0.82-0.31 1.01-0.37 0.19-0.82 0.05-1.01-0.31-0.62-1.18-0.95-2.51-0.95-3.85 0-4.55 3.7-8.25 8.25-8.25 4.55 0 8.25 3.7 8.25 8.25s-3.7 8.25-8.25 8.25c-0.09 0-2.21 0.04-2.97 1.75-0.03 0.08-0.07001 0.16-0.09001 0.24l-0.18999 1.36c-0.07 0.38-0.39 0.65-0.76 0.65z"/>
 <path d="m14 22.001c-0.26 0-0.52-0.11-0.71-0.29-0.18-0.19-0.29-0.45-0.29-0.71 0-0.13 0.03-0.26 0.08-0.38 0.05-0.13 0.12-0.23 0.21-0.33 0.28-0.28 0.72-0.37 1.09-0.21 0.13 0.05 0.23 0.12 0.33 0.21 0.09 0.1 0.16 0.2 0.21 0.33 0.05 0.12 0.08 0.25 0.08 0.38 0 0.26-0.11 0.52-0.29 0.71-0.1 0.09-0.2 0.16-0.33 0.21-0.12 0.05-0.25 0.08-0.38 0.08z"/>
</svg>
